!!!COM: Fe/licien David
!!!CNT: Francais
!!!TXO: Francais
!!!OTL: Le Bedouin
!!!LYR: Jacques Cognat
!!!ENC: Jacob Pegg
!!!YOR: Romantic French Song 1830-1870, David Tunley, ed., New York: Garland Publishing, Inc., 1995
!!!ODT: 1843/
!!NB: Vocal melody and text only encoded.
!!NB: 1st strophe only encoded. 
!!NB: (rest is availble in another file, David001a.doc)
**kern	**silbe
*clef G2	*
*k[b-]	*
*M2/4	*
!!needs attention to p's and q's, m. 14. 
=3	=3
!!whole rests changed to half rests to conform with 2/4 time
8r	.
{8a	{Al-
8a	-lons,
8a	o
=4	=4
8a	mon
8g	a-
8f	-mi
8g	fi-
=5	=5
(8.a	-de\-
16b-)	|
4a}	-le,}
=6	=6
2r	.
=7	=7
8r	.
{8a	{In-
8.dd	-cli-
16dd	-ne
=8	=8
8cc	toi
8f	pour
8a	me
8g	ser-
=9	=9
2f}	-vir,}
=10	=10
2r	.
=11	=11
2r	.
=12	=12
8r	.
{8a	{Au-
8ee	-jourd'-
8ee	-hui
=13	=13
8ee	comme
(16dd	u-
16ee)	|
8ff#	-ne
8ee	ga-
=14	=14
!!timing error?! These q's should be 'durationless.'
(8dd	-zel-
16eeq	|
16ddq	|
16c#	|
16bn)	|
[4cc#	-le
=15	=15
4cc#]}	|}
4r	.
=16	=16
8r	.
{8a	{Dans
8a	le
8ee	de/-
=17	=17
8ee	-sert
(16ee	il
16dd)	|
8ee	faut
8ff#	cou-
=18	=18
2gg}	-rir.}
=19	=19
4r	.
8r	.
{[8gg	{Al-
=20	=20
2gg_	-lah!
=21	=21
4gg;]}	|}
8r	.
{8gg	{ac-
=22	=22
8ee	-corde
8ff	un
8dd	bon
8ee	voy-
=23	=23
(8.cc	-a
16bn)	|
4a}	-ge}
=24	=24
8r	.
{8a	{Au
8.bn	vrai
16cc#	croy-
=25	=25
2dd}	-ant;}
=26	=26
2r	.
=27	=27
8r	.
{8cc	{Toi
8cc	seul
8ff	es
=28	=28
(4..ff	sa-
16cc)	|
=29	=29
[2cc	-ge
=30	=30
2cc]}	|}
=31	=31
4r	.
{8.a	{Et
16b-	je
=32	=32
4cc	suis
8.ff	Mu-
16ee	-sul-
=33	=33
2dd}	-man!}
!!end strophe 1.
*-	*-
